X: 020730
T: Baker's Jig
S: "Collection of the Dance Music of Ireland" (P. McNulty)
Z: B.Black
L: 1/8
M: 6/8
R: jig
K: G
D|GFG B2G|c2A F2D|GFG B2c|d2g B2c|
dge =f2d|cAG FGA|d^cd =cAF|G3 G2 :|
d|g2d B2G|c2A F2D|g2d B2c|d2e =f2e|
dge f2d|cAG FGA|d^cd =cAF|G3 G2 :|
